X:239
T:I will gang no more to your town
O:No 239 William Clarke of Feltwell
M:4/4
L:1/8N:Final note of both parts has been changed to a quaver.
K:G
B|Gggd B2Gd|Bd GB BAAa|b/a/g/f/ gdB2Gd|Bd Ac BG G::c|BGdG eGdg|BG e/d/c/B/ cAAc|BGdG eGdG|Bd Ac BGGc|BG dG eG dg|BG e/d/c/B/ cAAc|BG dG eG dG |Bd Ac BG G:|

